X: 3
T: The Bulgarian
R: polka
M: 2/4
L: 1/8
K: Edor
|:G/F/|EB GB|EB GB|D>E FG|A/B/A/G/ FD|
EB GB|E/G/B GB|AA/G/ FD|E2 E:|
|:G/F/|E>F GA|Bc dc/d/|eG GB/G/|A2 ^A2|
B>=c BA|GE- EG|AA/G/ FD|E2- E:|

